X: 117
%
U:~=!turn!
T: Colonel Thornton
C:
O:Scotland
B:Keith Norman MacDonald : "The Skye collection of the best reels & strathspeys extant" : 1887
Z:Ralph Palmer
R:Reel
M:C
L:1/8
K:A minor
B, | A,/A,/A, E>A, ~C3 E | B,>G,D>G, E>G,D>G, | A,/A,/A, E>A, C>A,E>C | B,>G,D>B, {/^F}TE2 A, :: B, | A,<A, A2 E<E A2 |
~G>ED>G B,>G,D>B, | A,<A, A2 E<E A2 | G>E^FD TE2 A, :: E | (C/B,/)A, EA, (C/B,/)A, EA, | (B,/A,/)G, DG, EG,DG, |
(C/B,/)A, EA, (C/B,/)A, EA, | (B,/A,/)G, DB, {/^F}TE2 A, :: B, | A,<A, A2 E<E A2 | ~G>EDG B,<G,E>B, | A,<A, A2 E<E A2 | G>E^F>D TE2 A, :|


